X: 06020
T: The DUKE'S CHAIR
C: Bob McQuillen 31 Aug 81
B: Bob's Note Book 6 #20
%R: reel
Z: 2021 John Chambers <jc:trillian.mit.edu>
M: C
L: 1/8
K: A
AF \
| E2EF AFAB | cefa f2ef | abaf ecBc | AcBA FEFA |\
| ECEF AFAc | BABc e2ab | aefa bafe | c2A2 A2 :|
|: ef \
| a2fa bafe | cBAc e2ce | f2ef afec | BAFE F2EF |\
| A2FA BcAB | cefa bafe | fefa fecA | B2A2 A2 :|
%%begintext align
%% Of course,
%% before you can have a tune about a chair,
%% it figures you gotta have the chair first.
%% Sometimes this can be a problem! If you
%% don't believe me, ask Pete & April.
%%endtext

%%sep 1 1 500

%%sep 1 1 500

